src/assets/Group88.svg

<svg width="34" height="34" viewBox="0 0 34 34" fill="none" xmlns="http://www.w3.org/2000/svg">
<rect width="34" height="34" rx="17" fill="white"/>
<g clip-path="url(#clip0_297_780)">
<path d="M17.0034 12.9573C14.732 12.9573 12.8999 14.7608 12.8999 16.9968C12.8999 19.2327 14.732 21.0362 17.0034 21.0362C19.2749 21.0362 21.107 19.2327 21.107 16.9968C21.107 14.7608 19.2749 12.9573 17.0034 12.9573ZM17.0034 19.6229C15.5356 19.6229 14.3356 18.4452 14.3356 16.9968C14.3356 15.5483 15.532 14.3706 17.0034 14.3706C18.4749 14.3706 19.6713 15.5483 19.6713 16.9968C19.6713 18.4452 18.4713 19.6229 17.0034 19.6229ZM22.232 12.7921C22.232 13.3159 21.8034 13.7343 21.2749 13.7343C20.7427 13.7343 20.3177 13.3124 20.3177 12.7921C20.3177 12.2718 20.7463 11.8499 21.2749 11.8499C21.8034 11.8499 22.232 12.2718 22.232 12.7921ZM24.9499 13.7483C24.8891 12.4862 24.5963 11.3683 23.657 10.4472C22.7213 9.52607 21.5856 9.23779 20.3034 9.17451C18.982 9.10068 15.0213 9.10068 13.6999 9.17451C12.4213 9.23428 11.2856 9.52256 10.3463 10.4437C9.40701 11.3647 9.11773 12.4827 9.05344 13.7448C8.97844 15.0456 8.97844 18.9444 9.05344 20.2452C9.11416 21.5073 9.40701 22.6253 10.3463 23.5464C11.2856 24.4675 12.4177 24.7558 13.6999 24.819C15.0213 24.8929 18.982 24.8929 20.3034 24.819C21.5856 24.7593 22.7213 24.471 23.657 23.5464C24.5927 22.6253 24.8856 21.5073 24.9499 20.2452C25.0249 18.9444 25.0249 15.0491 24.9499 13.7483ZM23.2427 21.6409C22.9641 22.33 22.4249 22.8608 21.7213 23.1386C20.6677 23.5499 18.1677 23.455 17.0034 23.455C15.8392 23.455 13.3356 23.5464 12.2856 23.1386C11.5856 22.8643 11.0463 22.3335 10.7642 21.6409C10.3463 20.6038 10.4427 18.1429 10.4427 16.9968C10.4427 15.8507 10.3499 13.3862 10.7642 12.3526C11.0427 11.6636 11.582 11.1327 12.2856 10.855C13.3392 10.4437 15.8392 10.5386 17.0034 10.5386C18.1677 10.5386 20.6713 10.4472 21.7213 10.855C22.4213 11.1292 22.9606 11.6601 23.2427 12.3526C23.6606 13.3897 23.5641 15.8507 23.5641 16.9968C23.5641 18.1429 23.6606 20.6073 23.2427 21.6409Z" fill="#192031"/>
</g>
<defs>
<clipPath id="clip0_297_780">
<rect width="16" height="18" fill="white" transform="translate(9.00012 8)"/>
</clipPath>
</defs>
</svg>

<svg xmlns="http://www.w3.org/2000/svg" width="34" height="34" fill="none"><rect width="34" height="34" fill="#fff" rx="17"/><g clip-path="url(#a)"><path fill="#192031" d="M17.003 12.957c-2.271 0-4.103 1.804-4.103 4.04s1.832 4.04 4.103 4.04 4.104-1.804 4.104-4.04-1.832-4.04-4.104-4.04m0 6.666c-1.467 0-2.667-1.178-2.667-2.626 0-1.449 1.196-2.626 2.667-2.626 1.472 0 2.668 1.177 2.668 2.626s-1.2 2.626-2.668 2.626m5.229-6.83a.95.95 0 0 1-.957.941.95.95 0 0 1-.957-.942.95.95 0 0 1 .957-.942.95.95 0 0 1 .957.942m2.718.955c-.06-1.262-.354-2.38-1.293-3.3-.936-.922-2.071-1.21-3.354-1.273-1.321-.074-5.282-.074-6.603 0-1.279.06-2.414.348-3.354 1.269-.939.92-1.228 2.039-1.293 3.3-.075 1.302-.075 5.2 0 6.501.061 1.262.354 2.38 1.293 3.301.94.922 2.072 1.21 3.354 1.273 1.321.074 5.282.074 6.603 0 1.283-.06 2.418-.348 3.354-1.273.936-.92 1.229-2.039 1.293-3.3.075-1.302.075-5.197 0-6.498m-1.707 7.893a2.68 2.68 0 0 1-1.522 1.498c-1.053.41-3.553.316-4.718.316-1.164 0-3.667.091-4.717-.316a2.68 2.68 0 0 1-1.522-1.498c-.418-1.037-.321-3.498-.321-4.644s-.093-3.61.321-4.644a2.68 2.68 0 0 1 1.522-1.498c1.053-.411 3.553-.316 4.717-.316 1.165 0 3.668-.092 4.718.316.7.274 1.24.805 1.522 1.498.418 1.037.321 3.498.321 4.644s.097 3.61-.321 4.644"/></g><defs><clipPath id="a"><path fill="#fff" d="M9 8h16v18H9z"/></clipPath></defs></svg>
